!!!COM: Fux, Johann Joseph
!!!OMD: Gradus ad Parnassum Exercise
!!!YEC: CC0 1.0 Universal (Public Domain). Mark Gotham and FourScoreAndMore.org waive all rights to this document.
**kern	**kern	**kern	**kern
*part4	*part3	*part2	*part1
*staff4	*staff3	*staff2	*staff1
*I"4	*I"3	*I"2	*I"1
*I'Pno	*I'Pno	*I'Pno	*I'Pno
!!LO:LB:g=z
*clefF4	*clefGv2	*clefG2	*clefG2
*k[]	*k[]	*k[]	*k[]
!!LO:TX:omd:t=
*M4/4	*M4/4	*M4/4	*M4/4
=284	=284	=284	=284
!	!	!	!LO:TX:a:t=Fig. 197; Species&colon; 4; Modal final&colon; d; Cantus firmus&colon; 2
2r	1D	1d	1a
[2D\	.	.	.
=285	=285	=285	=285
2D\]	1D	1f	1a
[2A\	.	.	.
=286	=286	=286	=286
2A\]	1E	1e	2cc\
[2G\	.	.	2b\
=287	=287	=287	=287
2G\]	1A	1d	1dd
[2F\	.	.	.
=288	=288	=288	=288
2F\]	1G	1g	2b\
[2E\	.	.	2cc\
=289	=289	=289	=289
2E\]	1A	1f	1a
[2D\	.	.	.
=290	=290	=290	=290
2D\]	1F	1a	1dd
[2F\	.	.	.
=291	=291	=291	=291
2F\]	1C	1g	1cc
[2E\	.	.	.
=292	=292	=292	=292
2E\]	1F	1f	1a
[2D\	.	.	.
=293	=293	=293	=293
2D\]	1A	1e	1a
2C#X/	.	.	.
=294	=294	=294	=294
1D	1F#X	1d	1a
==	==	==	==
*-	*-	*-	*-
!!!software: music21 v.9.7.1
!!!software: music21 v.9.7.1
!!!software: MuseScore 3.4.2
!!!RDF**kern: > = above
!!!RDF**kern: < = below
